X: 33079
T: Primrose Lasses, The
R: strathspey
M: 4/4
K: Dmajor
|:e/|f2 f>e d2 d>B|A>Bd>e f<BB>e|f2 f>e d2 d>B|A>da>g f<dd3/2:|
B/|A>df>d a>df>d|A>df>d e<B B2|A>df>d a>df>d|(3fga e>g f<dd>B|
A>d f2 a>d f2|A>d (3fed e<BB>e|f2 f>e d2 d>B|A<da>g f<dd3/2||

